X:1
T:Noel nouveau est venu
T:Noel nouveau est venu
T:Nicolas Martin (1500?-1571)
C:Nicolas Martin (1500?-1571)
L:1/8
Q:1/4=100
M:4/4
K:G
V:1 treble 
V:1
 B>c dd AB G2 | B>c de cd B2 | g>f ed cd G2 | d4- | d4 c>B AG c>B AG | B>c dd AB G2 |] %6
w: NO el nou veau est ve nu,|De nos pe res at ten du,|De pa ra dis de scen du,|Ou?|Bas en ter re Pour a cquer re, Ce|qu'A dam a voit per du. *|

